X: 1
T: Christ Returneth
M: none
L: 1/4
Q: 1/4=120
%%staves M | {(RH1 RH2 RH3 RH4) (LH1 LH2 LH3 LH4)}
V: M clef=treble name="Melody"
V: RH1 clef=treble name="RH"
V: RH2 clef=treble
V: RH3 clef=treble
V: RH4 clef=treble
V: LH1 clef=bass name="LH"
V: LH2 clef=bass
V: LH3 clef=bass
V: LH4 clef=bass
K: D
[V: M] "^vi7²""^Am7²"D | "^I¹""^C¹"F E D | "^I²""^C²"A2 B3/4 A/4 | "^I¹""^C¹"F E D | "^I¹""^C¹"F E z E | "^I¹""^C¹""^C¹-1"F F A | "^IVΔ²""^Am¹""^F²"d3/2 e/ d | "^iii7³""^G¹""^C-1+2"c d B | "^V11""^Bø7""^F-1+2"B A z A | "^IΔ²""^CΔ³""^C²-3"A B c | "^vi7¹""^Am¹""^C"d2 c3/4 d/4 | "^V7""^B°¹""^G-5"e3/2 d/ e | "^vi7¹""^C¹""^F²-1"f d d3/4 d/4 | "^ii7¹""^Dm7""^F"d3/2 c/ B | ( "^I²""^C²""^C²-3"A d ) c | "^I""^C""^C"d3 | | "^I""^C¹""^C"A2 F | "^IV""^F¹""^F"F G A | "^ii7¹""^Dm7""^F-5"B2 B | "^IV""^F""^F-5"d2 d3/4 d/4 | "^I¹""^C""^C¹"d c B | "^vi7²""^Am¹""^C¹-1"A2 c3/4 c/4 | "^vi7²""^Am¹""^C¹-1"d d c3/4 c/4 | "^I""^C¹""^C-3"d d e3/4 e/4 | "^I""^C""^C"f d c | "^I²""^C²""^C²"d2 F3/4 F/4 | "^C-5""^C-5"A G E | D2 |]
[V: RH1] [Q:1/4=120] D | F E D | A2 B3/4 A/4 | F E D | F E z E | F F A | d3/2 e/ d | c d B | B A z A | A B c | d2 c3/4 d/4 | e3/2 d/ e | f d d3/4.- d/4 | d3/2 c/ B | (A d) c | d3 || A2 F | F G A | B2 B | d2 d3/4 d/4 | d c B | A2 c3/4 c/4 | d d c3/4 c/4 | d d e3/4 e/4 | f d c | d2 F3/4 F/4 | A G E | D2 |]
[V: RH2] B, | D D B, | F2 G3/4 F/4 | D D B, | D C z C | D D E | B3/2 c/ B | A B G | G F z F | F G A | B2 A3/4 B/4 | c3/2 B/ c | d B B3/4.- B/4 | B3/2 A/ G | (F A) G | A3 || F2 D | D E F | G2 G | B2 B3/4 B/4 | B A G | F2 A3/4 A/4 | B B A3/4 A/4 | B B c3/4 c/4 | d B A | A2 D3/4 D/4 | F E C | D2 |]
[V: RH3] A, | A, G, F, | D2 D3/4 D/4 | A, G, F, | A, A, z A, | A, A, C | F3/2 G/ F | E G G | E D z D | D E E | F2 E3/4 F/4 | G3/2 F/ G | A F F3/4.- F/4 | G3/2 F/ E | (D F) E | F3 || D2 A, | A, B, D | D2 D | G2 G3/4 G/4 | B A G | F2 E3/4 E/4 | F F E3/4 E/4 | F F G3/4 G/4 | A F E | F2 A,3/4 A,/4 | D B, A, | F,2 |]
[V: RH4] F, | F, E, D, | A,2 B,3/4 A,/4 | F, E, D, | F, E, z E, | F, F, A, | D3/2 E/ D | C E E | C C z C | C D C | D2 C3/4 D/4 | E3/2 D/ E | F D D3/4.- D/4 | E3/2 D/ C | (A, D) C | D3 || A,2 F, | F, G, F, | B,2 B, | E2 E3/4 E/4 | G F E | D2 C3/4 C/4 | D D C3/4 C/4 | D D E3/4 E/4 | F D C | D2 F,3/4 F,/4 | A, G, E, | D,2 |]
[V: LH1] z | z z z | z2 z3/4 z/4 | z z z | z z z z | A A A | B3/2 A/ A | A B d | d C z C | d d A | A2 A3/4 A/4 | C3/2 d/ C | d d d3/4.- d/4 | d3/2 C/ B | (d A) A | A3 || d2 A | A A A | d2 d | B2 B3/4 B/4 | B c d | d2 A3/4 A/4 | A A A3/4 A/4 | A A c3/4 c/4 | d A A | A2 A3/4 A/4 | F A G | F2 |]
[V: LH2] z | z z z | z2 z3/4 z/4 | z z z | z z z z | F F F | G3/2 F/ F | F G B | B A z A | A B G | F2 G3/4 F/4 | A3/2 B/ A | B A B3/4.- B,/4 | B3/2 A/ G | (A F) E | F3 || A2 F | F G F | B,2 B | G2 G3/4 G/4 | G A B | A2 F3/4 F/4 | F F E3/4 E/4 | F F G3/4 G/4 | A F E | F2 F3/4 F/4 | D E C | D2 |]
[V: LH3] z | z z z | z2 z3/4 z/4 | z z z | z z z z | F, D, E, | D,3/2 E,/ F, | E, E, E, | A,, A,, z A,, | A, G, E, | D,2 E,3/4 D,/4 | A,,3/2 B,,/ C, | D, D, F,,3/4.- F,,/4 | G,,3/2 G,,/ G,, | A,,2 A,,, | D,,3 || F,2 F, | D, E, F, | G,2 G, | G,2 G,3/4 G,/4 | G, G, G, | F,2 A,3/4 A,/4 | F, F, E,3/4 E,/4 | F, F, A,3/4 A,/4 | D, A,, A,, | D,2 D,3/4 D,/4 | A,, A,, A,, | D,2 |]
[V: LH4] z | z z z | z2 z3/4 z/4 | z z z | z z z z | % % — Bars 5-10 (second phrase, first strain) — TTBB enters forthrightly — % Original: Sop F4 F4 A4 | d5 e5 d5 | c5 d5 B4 | B4 A4(rest)A4 | A4 B4 c5 | d5-d5 c5¾ d5¼ %           Alt D4 D4 E4 | F4 G4 F4 | E4 ^G4 G4 | A4 A4(rest)G4 | F4 G4 G4 | F4-F4 E4¾ F4¼ %           Ten A3 A3 A3 | B3 A3 A3 | A3 B3 D4 | D4 C#4(rest)C#4 | D4 D4 A3 | A3-A3 A3¾ A3¼ %           Bas D3 D3 C3 | B2 C3 D3 | E3 E3 E3 | A2 A2(rest)A2 | A3 G3 E3 | D3-D3 E3¾ D3¼ % % Bar 7 alto: E4 ^G4(=G#4) G4 — G# is non-diatonic in D major %   Harmonic context: E3 E3 E3 in tenor + A2 A2 A2 in bass = E minor chord (ii of D) %   G# makes it E major = secondary dominant V/vi (tonicizing B minor) %   Rule: V/vi → III or v (diatonic substitution) %   Replace G# with G natural: E4 G4 G4 → implies Em chord (ii minor) — diatonic, fine %   Voice leading: E4→G4 is a minor third up, then G4 stays → good % % T1 (written one octave higher than concert): A3 sounds → write A; B3→B; D4→d; C#4→C (=C# in K:D) % T2 a third below T1: F3→write F; G3→write G; E3→write E; A3→write A; B3→write B % Baritone (bass clef concert): a 3rd above Bass I % Bass I follows original S2V2 closely % D, D, C, | B,,3/2 C,/ D, | E, E, E, | A,, A,, z A,, | A, G, E, | D,2 E,3/4 D,/4 | % % — Bars 11-15: First section cadence (||) — % Original: Sop e5¾d5¼e5 | f5 d5 d5¾-d5¼ | d5¾c5¼B4 | (A4 d5)c5 | d5-d5-d5 %           Alt G4¾F4¼G4 | A4 F4 A4¾-A4¼ | B4¾A4¼G4 | F4-F4 G4 | F4-F4-F4 %           Ten C4¾D4¼C4 | D4 D4 D4¾-D4¼ | D4¾D4¼D4 | (D4 A3) A3 | A3-A3-A3 %           Bas A2¾A2¼A2 | D3 D3 F3¾-F3¼ | G3¾G3¼G3 | A3-A3 A2 | D3-D3-D3 % % Cadence at bar 15: S1=D5 (d), S2=A4 (A), A1=F4 (F), A2=D4 (D), T1=A3(wr:A), T2=F3(wr:F), Bar=F3, B1=D3(D,) % Suspension setup: A2 suspends F4→E4 in bar 14-15; T2 suspends A3→G3(wr:A→G) — diatonic % A,,3/2 A,,/ A,, | D, D, F,,3/4.- F,,/4 | G,,3/2 G,,/ G,, | A,,2 A,,, | D,,3 || % % ===================================================================== % SECTION B  (Chorus — "It may be at morn") % ===================================================================== % % — Bars 16-21: Full 8-voice homophony, forte — % Original: Sop A4-A4 F4 | F4 G4 A4 | B4-B4 B4 | d5-d5 d5¾d5¼ | d5 c5 B4 | A4-A4 c5¾c5¼ %           Alt F4-F4 D4 | D4 C4 D4  | D4-D4 D4 | G4-G4 G4¾G4¼ | B4 A4 G4 | F4-F4 E4¾E4¼ %           Ten D4-D4 A3 | A3 A3 A3  | D4-D4 D4 | B3-B3 B3¾B3¼ | B3 C4 D4 | D4-D4 A3¾A3¼ %           Bas D3-D3 D3 | D3 E3 F3  | G3-G3 G3 | G3-G3 G3¾G3¼ | G3 G3 G3 | D3-D3 A3¾A3¼ % % S2: diatonic thirds below S1 % A1: follows original alto % A2: thirds below A1 % T1 (written 8va higher): D4→wr:d, A3→wr:A, B3→wr:B, C4→wr:c, D4→wr:d % T2: thirds below T1 (diatonic): B3→wr:B becomes G3→wr:G; D4→wr:d becomes B3→wr:B % Bar: thirds above Bass I (diatonic) % B1: follows original bass % D,2 D, | D, E, F, | G,2 G, | G,2 G,3/4 G,/4 | G, G, G, | D,2 A,,3/4 A,,/4 | % % — Bars 22-27: Chorus continuation and final cadence — % Original: Sop d5 d5 c5¾c5¼ | d5 d5 e5¾e5¼ | f5 d5 c5 | d5-d5 F4¾F4¼ | A4 G4 E4 | D4-D4 %           Alt F4 F4 G4¾G4¼ | F4 F4 A4¾A4¼  | A4 F4 G4 | F4-F4 D4¾D4¼ | D4 E4 C4 | D4-D4 %           Ten A3 A3 A3¾A3¼ | A3 A3 C4¾C4¼  | D4 A3 A3 | A3-A3 A3¾A3¼ | F3 A3 G3 | F3-F3 %           Bas D3 D3 A2¾A2¼ | D3 D3 A3¾A3¼  | D3 D3 A2 | D3-D3 D3¾D3¼ | A2 A2 A2 | D3-D3 % % Bars 22-23: Antiphonal — SSAA sings bars 22-23, TTBB echoes same rhythm % Bar 24 (f5): S1 climax at F5 (written f) = top of comfortable range %   B1 = A2 (A,,) = very low, full spread achieved % Bars 25-26: stretto — SSAA enters on F4, TTBB on F3, converging on D % Final bar: S1=D4(D), S2=A3(A), A1=F3(F,)... %   Wait: A1 is alto, treble clef, range F3-D5. F3=F, in ABC. D4=D. %   A2 range D3-B4: D3=D,. T1 sounds D3→writes d(D5 wr = D4 snd). T2 sounds A2→writes A(A4wr=A3snd)? %   No: T2 sounds A2 → write A (A4) with transpose=-12 → sounds A3. That's not A2. %   For T2 to sound A2: write A, (A3) → sounds A2. T2 range floor G2 → write G,(G3)→sounds G2. OK. %   But G2 is quite low. Let's have B1 = D3 (D,) for the final, Bar = F3 (F,). % D, D, A,,3/4 A,,/4 | D, D, A,,3/4 A,,/4 | D, D, A,,, | D,2 D,,3/4 D,,/4 | A,,, A,,, A,,, | D,,2 |]
